X: 13
M:6/8
L:1/8
K:D
|:d|cBc dAF|ABc dAF|G2 E EFE|GFG E2 d|
cBc dAF|ABc dAG|F2 D DED|F2 D D2:|
|:F|AF/2G/2A/2F/2 DFF|DFF AGF|G2 E EFE|G2 E E2 F|
|:g|fed faf|gbg faf|g2 e ece|gfg e2 g|
fed faf|gbg aga|fed dAd|f2 d d2:|
|:g|faf gec|fdB AGF|G2 E EGE|G2 E E2 g|
fdB ecA|dBG AGE|F2 D DED|F2 D D2:||

